X:52
T:Roaring Mary
R:reel
E:7.5
I:speed 350
M:C|
K:D
DF~F2 AF~F2|df~f2g2fe|dedB ABde|fedefe~e2|\
DF~F2 AF~F2|df~f2g2fe|dedBABdf|afeg fd~d2:|*
~a3g fgfe|dedA BAFA|eg~g2 bg~g2|af~f2 ge~e2|\
DF~F2 AF~F2|df~f2 g2fe|dedB ABdf|afeg fd~d2:|**
<end>
<start>
